X:82
T:Pilot,The. RHu.082
S:R.Hughes MS,1823,Whitchurch,Shrops.
A:Whitchurch, Shropshire
Z:Neil Brookes 2006
M:6/8
L:1/8
Q:3/8=120
R:Jig
K:C
c/d/|e2eg2g|c’3 c’bc’|d’2b gab|c’2g e2c|!
e2eg2g|c’3c’bc’d’2b gab|c’3c’2::!
e|e3e2f|d3d2e|f2fd2d|c2eg2c’|!
e3e2f|d3d2e|f2fd2d|c3c2:|

